src/img/success-modal-img.svg

<svg width="289" height="284" viewBox="0 0 289 284" fill="none" xmlns="http://www.w3.org/2000/svg">
<path d="M91.7466 231.885C91.7466 231.885 132.828 241.962 183.806 229.565C234.783 217.168 272.479 187.932 272.479 187.932" stroke="#A19B9B" stroke-width="5" stroke-linecap="round" stroke-linejoin="round"/>
<path d="M111.363 255.416C111.363 255.416 145.504 263.579 189.477 252.885C233.45 242.192 261.973 218.789 261.973 218.789" stroke="#A19B9B" stroke-width="4" stroke-linecap="round" stroke-linejoin="round"/>
<path d="M150.307 271.673C150.307 271.673 161.668 279.202 193.967 271.347C226.266 263.493 232.756 255.225 232.756 255.225" stroke="#A19B9B" stroke-width="3" stroke-linecap="round" stroke-linejoin="round"/>
<path d="M145.717 193.501C137.469 159.462 104.08 118.839 85.1395 99.4029C83.4091 97.6272 83.1712 94.8846 84.8428 93.0535C103.011 73.1518 156.463 46.2781 171.071 39.1448C173.244 38.084 175.779 38.7237 177.153 40.7126C188.707 57.4366 238.608 132.226 233.134 168.775C232.877 170.495 231.597 171.826 229.942 172.361L152.43 197.42C149.509 198.364 146.44 196.484 145.717 193.501Z" stroke="#A19B9B" stroke-width="4"/>
<path d="M151.526 197.948C151.526 197.948 147.349 211.941 140.067 218.021" stroke="#A19B9B" stroke-width="2" stroke-linecap="round" stroke-linejoin="round"/>
<path d="M160.835 194.295C160.835 194.295 161.047 204.417 149.011 213.437" stroke="#A19B9B" stroke-width="2" stroke-linecap="round" stroke-linejoin="round"/>
<path d="M171.074 190.276C171.074 190.276 167.911 205.483 159.333 210.998" stroke="#A19B9B" stroke-width="2" stroke-linecap="round" stroke-linejoin="round"/>
<path d="M179.252 189.215C179.252 189.215 179.282 198.872 172.182 205.418" stroke="#A19B9B" stroke-width="2" stroke-linecap="round" stroke-linejoin="round"/>
<path d="M188.561 185.562C188.561 185.562 188.773 195.684 181.491 201.765" stroke="#A19B9B" stroke-width="2" stroke-linecap="round" stroke-linejoin="round"/>
<path d="M197.87 181.909C197.87 181.909 197.899 191.565 190.8 198.111" stroke="#A19B9B" stroke-width="2" stroke-linecap="round" stroke-linejoin="round"/>
<path d="M207.544 179.187C207.544 179.187 205.712 189.574 200.474 195.389" stroke="#A19B9B" stroke-width="2" stroke-linecap="round" stroke-linejoin="round"/>
<path d="M215.356 177.195C215.356 177.195 213.99 187.399 208.287 193.397" stroke="#A19B9B" stroke-width="2" stroke-linecap="round" stroke-linejoin="round"/>
<path d="M223.999 175.951C223.999 175.951 221.602 187.635 216.93 192.154" stroke="#A19B9B" stroke-width="2" stroke-linecap="round" stroke-linejoin="round"/>
<path d="M231.912 172.846C231.912 172.846 231.924 185.195 224.842 189.049" stroke="#A19B9B" stroke-width="2" stroke-linecap="round" stroke-linejoin="round"/>
<path d="M86.0114 90.9888C86.0114 90.9888 72.6931 83.8616 62.4799 84.647" stroke="#A19B9B" stroke-width="2" stroke-linecap="round" stroke-linejoin="round"/>
<path d="M93.8588 83.6121C93.8588 83.6121 86.8427 76.1601 70.6927 78.2012" stroke="#A19B9B" stroke-width="2" stroke-linecap="round" stroke-linejoin="round"/>
<path d="M104.057 77.9985C104.057 77.9985 90.6974 69.2763 79.8366 71.3901" stroke="#A19B9B" stroke-width="2" stroke-linecap="round" stroke-linejoin="round"/>
<path d="M108.802 72.3765C108.802 72.3765 101.968 65.39 91.5726 65.7099" stroke="#A19B9B" stroke-width="2" stroke-linecap="round" stroke-linejoin="round"/>
<path d="M119.242 66.1309C119.242 66.1309 112.226 58.679 102.013 59.4643" stroke="#A19B9B" stroke-width="2" stroke-linecap="round" stroke-linejoin="round"/>
<path d="M129.682 59.8853C129.682 59.8853 122.848 52.8988 112.453 53.2187" stroke="#A19B9B" stroke-width="2" stroke-linecap="round" stroke-linejoin="round"/>
<path d="M143.28 53.4744C143.28 53.4744 134.42 47.283 126.05 46.8078" stroke="#A19B9B" stroke-width="2" stroke-linecap="round" stroke-linejoin="round"/>
<path d="M151.292 49.2556C151.292 49.2556 142.939 42.8655 134.063 42.5891" stroke="#A19B9B" stroke-width="2" stroke-linecap="round" stroke-linejoin="round"/>
<path d="M158.94 44.106C158.94 44.106 148.702 37.3813 141.71 37.4394" stroke="#A19B9B" stroke-width="2" stroke-linecap="round" stroke-linejoin="round"/>
<path d="M168.248 40.4529C168.248 40.4529 159.489 31.5368 151.019 33.7863" stroke="#A19B9B" stroke-width="2" stroke-linecap="round" stroke-linejoin="round"/>
<path d="M137.813 97.3976C138.779 98.7067 139.033 99.4838 139.051 99.9312C139.064 100.266 138.955 100.602 138.44 101.102C137.874 101.65 137.01 102.209 135.779 102.968C135.677 103.031 135.574 103.095 135.468 103.16C134.347 103.849 133.025 104.663 131.65 105.678C130.37 106.624 129.146 107.67 128.018 108.634C127.827 108.796 127.639 108.957 127.454 109.115C126.141 110.231 124.989 111.173 123.922 111.815C122.846 112.462 122.055 112.679 121.44 112.612C120.889 112.552 120.175 112.231 119.311 111.061C115.735 106.219 116.873 99.1875 122.027 95.381C127.181 91.5746 134.236 92.5549 137.813 97.3976Z" stroke="#A19B9B" stroke-width="3"/>
<path d="M179.853 80.2719C180.299 81.8372 180.263 82.6537 180.123 83.0789C180.018 83.3967 179.798 83.6735 179.14 83.9604C178.417 84.2753 177.412 84.4951 175.993 84.7736C175.876 84.7966 175.756 84.8199 175.635 84.8437C174.343 85.0958 172.819 85.3933 171.175 85.8612C169.644 86.2969 168.131 86.8462 166.736 87.3526C166.501 87.4382 166.268 87.5226 166.04 87.605C164.419 88.1894 163.009 88.6674 161.784 88.8935C160.549 89.1216 159.733 89.0464 159.18 88.7679C158.686 88.5187 158.13 87.9666 157.732 86.5686C156.084 80.7784 159.619 74.5946 165.781 72.8405C171.944 71.0864 178.205 74.4817 179.853 80.2719Z" stroke="#A19B9B" stroke-width="3"/>
<path d="M149.75 142.784C162.612 149.553 191.452 140.92 195.151 114.761" stroke="#A19B9B" stroke-width="4" stroke-linecap="round" stroke-linejoin="round"/>
<ellipse cx="123.737" cy="102.503" rx="3.5" ry="3" transform="rotate(-21.4274 123.737 102.503)" fill="#A19B9B"/>
<ellipse cx="164.731" cy="81.0436" rx="3.5" ry="3" transform="rotate(-21.4274 164.731 81.0436)" fill="#A19B9B"/>
<circle cx="30.3755" cy="112.603" r="9" transform="rotate(-20.496 30.3755 112.603)" stroke="#A19B9B" stroke-width="2"/>
<circle cx="50.5638" cy="58.0831" r="15" transform="rotate(-20.496 50.5638 58.0831)" stroke="#A19B9B" stroke-width="2"/>
<circle cx="50.055" cy="96.7061" r="5" transform="rotate(-20.496 50.055 96.7061)" stroke="#A19B9B" stroke-width="2"/>
<circle cx="74.2686" cy="110.074" r="5" transform="rotate(-20.496 74.2686 110.074)" stroke="#A19B9B" stroke-width="2"/>
<circle cx="85.0214" cy="149.48" r="3.73005" transform="rotate(-56.6239 85.0214 149.48)" stroke="#A19B9B" stroke-width="2"/>
<circle cx="69.5976" cy="135.921" r="6.56808" transform="rotate(-56.6239 69.5976 135.921)" stroke="#A19B9B" stroke-width="2"/>
<circle cx="86.652" cy="135.827" r="1.83803" transform="rotate(-56.6239 86.652 135.827)" stroke="#A19B9B" stroke-width="2"/>
<circle cx="99.6869" cy="144.414" r="1.83803" transform="rotate(-56.6239 99.6869 144.414)" stroke="#A19B9B" stroke-width="2"/>
<circle cx="90.7059" cy="169.768" r="3.73005" transform="rotate(118.847 90.7059 169.768)" stroke="#A19B9B" stroke-width="2"/>
<circle cx="107.152" cy="182.067" r="6.56808" transform="rotate(118.847 107.152 182.067)" stroke="#A19B9B" stroke-width="2"/>
<circle cx="90.1583" cy="183.507" r="1.83803" transform="rotate(118.847 90.1583 183.507)" stroke="#A19B9B" stroke-width="2"/>
<circle cx="76.4859" cy="175.976" r="1.83803" transform="rotate(118.847 76.4859 175.976)" stroke="#A19B9B" stroke-width="2"/>
<circle cx="274.854" cy="101.903" r="9" transform="rotate(165.669 274.854 101.903)" stroke="#A19B9B" stroke-width="2"/>
<circle cx="253.582" cy="115.595" r="5" transform="rotate(165.669 253.582 115.595)" stroke="#A19B9B" stroke-width="2"/>
<circle cx="230.944" cy="99.7041" r="5" transform="rotate(165.669 230.944 99.7041)" stroke="#A19B9B" stroke-width="2"/>
<circle cx="224.485" cy="59.3715" r="3.73005" transform="rotate(129.541 224.485 59.3715)" stroke="#A19B9B" stroke-width="2"/>
<circle cx="238.363" cy="74.5087" r="6.56808" transform="rotate(129.541 238.363 74.5087)" stroke="#A19B9B" stroke-width="2"/>
<circle cx="221.397" cy="72.7703" r="1.83803" transform="rotate(129.541 221.397 72.7703)" stroke="#A19B9B" stroke-width="2"/>
<circle cx="209.36" cy="62.8328" r="1.83803" transform="rotate(129.541 209.36 62.8328)" stroke="#A19B9B" stroke-width="2"/>
<circle cx="221.012" cy="38.5905" r="3.73005" transform="rotate(-54.988 221.012 38.5905)" stroke="#A19B9B" stroke-width="2"/>
<circle cx="205.982" cy="24.5963" r="6.56808" transform="rotate(-54.988 205.982 24.5963)" stroke="#A19B9B" stroke-width="2"/>
<circle cx="223.032" cy="24.9894" r="1.83803" transform="rotate(-54.988 223.032 24.9894)" stroke="#A19B9B" stroke-width="2"/>
<circle cx="235.816" cy="33.9455" r="1.83803" transform="rotate(-54.988 235.816 33.9455)" stroke="#A19B9B" stroke-width="2"/>
</svg>

<svg width="289" height="284" fill="none" xmlns="http://www.w3.org/2000/svg"><path d="M91.747 231.885s41.081 10.077 92.059-2.32c50.977-12.397 88.673-41.633 88.673-41.633" stroke="#A19B9B" stroke-width="5" stroke-linecap="round" stroke-linejoin="round"/><path d="M111.363 255.416s34.141 8.163 78.114-2.531c43.973-10.693 72.496-34.096 72.496-34.096" stroke="#A19B9B" stroke-width="4" stroke-linecap="round" stroke-linejoin="round"/><path d="M150.307 271.673s11.361 7.529 43.66-.326c32.299-7.854 38.789-16.122 38.789-16.122" stroke="#A19B9B" stroke-width="3" stroke-linecap="round" stroke-linejoin="round"/><path d="M145.717 193.501c-8.248-34.039-41.637-74.662-60.578-94.098-1.73-1.776-1.968-4.518-.296-6.35 18.168-19.901 71.62-46.775 86.228-53.908 2.173-1.061 4.708-.421 6.082 1.568 11.554 16.724 61.455 91.513 55.981 128.062-.257 1.72-1.537 3.051-3.192 3.586L152.43 197.42c-2.921.944-5.99-.936-6.713-3.919z" stroke="#A19B9B" stroke-width="4"/><path d="M151.526 197.948s-4.177 13.993-11.459 20.073M160.835 194.295s.212 10.122-11.824 19.142M171.074 190.276s-3.163 15.207-11.741 20.722M179.252 189.215s.03 9.657-7.07 16.203M188.561 185.562s.212 10.122-7.07 16.203M197.87 181.909s.029 9.656-7.07 16.202M207.544 179.187s-1.832 10.387-7.07 16.202M215.356 177.195s-1.366 10.204-7.069 16.202M223.999 175.951s-2.397 11.684-7.069 16.203M231.912 172.846s.012 12.349-7.07 16.203M86.011 90.989s-13.318-7.127-23.531-6.342M93.859 83.612s-7.016-7.452-23.166-5.41M104.057 77.999s-13.36-8.723-24.22-6.609M108.802 72.376s-6.834-6.986-17.23-6.666M119.242 66.13s-7.016-7.451-17.229-6.666M129.682 59.885s-6.834-6.986-17.229-6.666M143.28 53.474s-8.86-6.191-17.23-6.666M151.292 49.256s-8.353-6.39-17.229-6.667M158.94 44.106s-10.238-6.725-17.23-6.667M168.248 40.453s-8.759-8.916-17.229-6.667" stroke="#A19B9B" stroke-width="2" stroke-linecap="round" stroke-linejoin="round"/><path d="M137.813 97.398c.966 1.309 1.22 2.086 1.238 2.533.013.335-.096.671-.611 1.171-.566.548-1.43 1.107-2.661 1.866l-.311.192c-1.121.689-2.443 1.503-3.818 2.518-1.28.946-2.504 1.992-3.632 2.956l-.564.481c-1.313 1.116-2.465 2.058-3.532 2.7-1.076.647-1.867.864-2.482.797-.551-.06-1.265-.381-2.129-1.551-3.576-4.842-2.438-11.874 2.716-15.68 5.154-3.806 12.209-2.826 15.786 2.017zM179.853 80.272c.446 1.565.41 2.382.27 2.807-.105.318-.325.595-.983.881-.723.315-1.728.535-3.147.814l-.358.07c-1.292.252-2.816.55-4.46 1.017-1.531.436-3.044.985-4.439 1.492l-.696.252c-1.621.584-3.031 1.062-4.256 1.288-1.235.229-2.051.153-2.604-.125-.494-.25-1.05-.801-1.448-2.2-1.648-5.79 1.887-11.973 8.049-13.727 6.163-1.755 12.424 1.64 14.072 7.43z" stroke="#A19B9B" stroke-width="3"/><path d="M149.75 142.784c12.862 6.769 41.702-1.864 45.401-28.023" stroke="#A19B9B" stroke-width="4" stroke-linecap="round" stroke-linejoin="round"/><ellipse cx="123.737" cy="102.503" rx="3.5" ry="3" transform="rotate(-21.427 123.737 102.503)" fill="#A19B9B"/><ellipse cx="164.731" cy="81.044" rx="3.5" ry="3" transform="rotate(-21.427 164.731 81.044)" fill="#A19B9B"/><circle cx="30.375" cy="112.603" r="9" transform="rotate(-20.496 30.375 112.603)" stroke="#A19B9B" stroke-width="2"/><circle cx="50.564" cy="58.083" r="15" transform="rotate(-20.496 50.564 58.083)" stroke="#A19B9B" stroke-width="2"/><circle cx="50.055" cy="96.706" r="5" transform="rotate(-20.496 50.055 96.706)" stroke="#A19B9B" stroke-width="2"/><circle cx="74.269" cy="110.074" r="5" transform="rotate(-20.496 74.269 110.074)" stroke="#A19B9B" stroke-width="2"/><circle cx="85.021" cy="149.48" r="3.73" transform="rotate(-56.624 85.021 149.48)" stroke="#A19B9B" stroke-width="2"/><circle cx="69.598" cy="135.921" r="6.568" transform="rotate(-56.624 69.598 135.921)" stroke="#A19B9B" stroke-width="2"/><circle cx="86.652" cy="135.827" r="1.838" transform="rotate(-56.624 86.652 135.827)" stroke="#A19B9B" stroke-width="2"/><circle cx="99.687" cy="144.414" r="1.838" transform="rotate(-56.624 99.687 144.414)" stroke="#A19B9B" stroke-width="2"/><circle cx="90.706" cy="169.768" r="3.73" transform="rotate(118.847 90.706 169.768)" stroke="#A19B9B" stroke-width="2"/><circle cx="107.152" cy="182.067" r="6.568" transform="rotate(118.847 107.152 182.067)" stroke="#A19B9B" stroke-width="2"/><circle cx="90.158" cy="183.507" r="1.838" transform="rotate(118.847 90.158 183.507)" stroke="#A19B9B" stroke-width="2"/><circle cx="76.486" cy="175.976" r="1.838" transform="rotate(118.847 76.486 175.976)" stroke="#A19B9B" stroke-width="2"/><circle cx="274.854" cy="101.903" r="9" transform="rotate(165.669 274.854 101.903)" stroke="#A19B9B" stroke-width="2"/><circle cx="253.582" cy="115.595" r="5" transform="rotate(165.669 253.582 115.595)" stroke="#A19B9B" stroke-width="2"/><circle cx="230.944" cy="99.704" r="5" transform="rotate(165.669 230.944 99.704)" stroke="#A19B9B" stroke-width="2"/><circle cx="224.485" cy="59.371" r="3.73" transform="rotate(129.541 224.485 59.371)" stroke="#A19B9B" stroke-width="2"/><circle cx="238.363" cy="74.509" r="6.568" transform="rotate(129.541 238.363 74.509)" stroke="#A19B9B" stroke-width="2"/><circle cx="221.397" cy="72.77" r="1.838" transform="rotate(129.541 221.397 72.77)" stroke="#A19B9B" stroke-width="2"/><circle cx="209.36" cy="62.833" r="1.838" transform="rotate(129.541 209.36 62.833)" stroke="#A19B9B" stroke-width="2"/><circle cx="221.012" cy="38.59" r="3.73" transform="rotate(-54.988 221.012 38.59)" stroke="#A19B9B" stroke-width="2"/><circle cx="205.982" cy="24.596" r="6.568" transform="rotate(-54.988 205.982 24.596)" stroke="#A19B9B" stroke-width="2"/><circle cx="223.032" cy="24.989" r="1.838" transform="rotate(-54.988 223.032 24.99)" stroke="#A19B9B" stroke-width="2"/><circle cx="235.816" cy="33.946" r="1.838" transform="rotate(-54.988 235.816 33.946)" stroke="#A19B9B" stroke-width="2"/></svg>
